X: 132
T: Ossian's Lament
N:"Moderate"
B:O'Neill's 132
Z:Transcribed by henrik.norbeck@mailbox.swipnet.se
M:3/4
L:1/8
K:G
G>A|B3 A (BA/G/)|A2 G2 (G>A)|B3 A (BA/G/)|G4 (G>A)|
B3 A (BA/G/)|"~"A2 G2 G>A|B2 dB A>G|G4||
d2|e>d d2 B>d|e>d d2 B>d|g>e e2 d>B|A>B e4|
g>e e2 d2|dB A2 GE|G>A B2 dB|("~"A>G) G2||


